images/brands/yotpo.svg

<svg fill="none" height="180" viewBox="0 0 520 180" width="520" xmlns="http://www.w3.org/2000/svg"><path clip-rule="evenodd" d="m130.38 68.6575 10.725 29.4779 11.237-29.4779h15.951l-27.277 68.2625h-15.777l8.068-21.152-19.391-47.1105zm168.483-1.0453c14.403 0 24.907 11.1427 24.907 26.394 0 15.2508-10.504 26.3968-24.907 26.3968-5.316 0-9.791-1.403-13.207-4.109l-.221-.179-.19-.155v20.944h-15.371v-68.2465h13.592v5.1019l.078-.0882c3.348-3.8077 8.414-5.9138 14.674-6.0512l.33-.0052zm-102.572 0c15.86 0 27.102 10.9248 27.102 26.394 0 15.4038-11.278 26.3968-27.102 26.3968-15.913 0-27.21-10.977-27.21-26.3968 0-15.4847 11.258-26.394 27.21-26.394zm52.712-10.1857v11.231h12.644v13.2359h-12.644v18.2706c0 4.087 1.99 6.336 5.617 6.474l.177.002.179.003c2.459 0 4.322-.643 5.989-2.241l.157-.153.413-.423h.115v14.6l-.471.226c-2.532 1.206-4.09 1.751-8.404 1.751-12.187 0-18.878-6.614-19.139-18.966l-.005-.376v-.376l-.002-18.7916h-5.563v-13.2359h5.982v-11.231zm108.355 10.1857c15.861 0 27.103 10.9248 27.103 26.394 0 15.4038-11.279 26.3968-27.103 26.3968-15.912 0-27.209-10.977-27.209-26.3968 0-15.4847 11.261-26.394 27.209-26.394zm39.633 35.9958c4.652 0 8.422 3.761 8.422 8.396 0 4.638-3.772 8.399-8.422 8.399-4.652 0-8.422-3.761-8.422-8.399 0-4.637 3.773-8.396 8.422-8.396zm-100.431-22.236c-6.926 0-11.63 5.1097-11.63 12.6342 0 7.5268 4.704 12.6368 11.63 12.6368 7.015 0 11.734-5.094 11.734-12.6368 0-7.5401-4.719-12.6342-11.734-12.6342zm-100.272 0c-6.947 0-11.731 5.1356-11.731 12.6342 0 7.5008 4.784 12.6368 11.734 12.6368 6.858 0 11.63-5.151 11.63-12.6368 0-7.483-4.775-12.6342-11.633-12.6342zm161.07 0c-6.946 0-11.734 5.1356-11.734 12.6342 0 7.5008 4.788 12.6368 11.734 12.6368 6.859 0 11.63-5.151 11.63-12.6368 0-7.483-4.771-12.6342-11.63-12.6342z" fill="#0042e4" fill-rule="evenodd"/></svg>

<svg width="520" height="180" viewBox="0 0 520 180" fill="none" xmlns="http://www.w3.org/2000/svg">
<path fill-rule="evenodd" clip-rule="evenodd" d="M130.38 68.6575L141.105 98.1354L152.342 68.6575H168.293L141.016 136.92H125.239L133.307 115.768L113.916 68.6575H130.38ZM298.863 67.6122C313.266 67.6122 323.77 78.7549 323.77 94.0062C323.77 109.257 313.266 120.403 298.863 120.403C293.547 120.403 289.072 119 285.656 116.294L285.435 116.115L285.245 115.96V136.904H269.874V68.6575H283.466V73.7594L283.544 73.6712C286.892 69.8635 291.958 67.7574 298.218 67.62L298.548 67.6148L298.863 67.6122ZM196.291 67.6122C212.151 67.6122 223.393 78.537 223.393 94.0062C223.393 109.41 212.115 120.403 196.291 120.403C180.378 120.403 169.081 109.426 169.081 94.0062C169.081 78.5215 180.339 67.6122 196.291 67.6122ZM249.003 57.4265V68.6575H261.647V81.8934H249.003V100.164C249.003 104.251 250.993 106.5 254.62 106.638L254.797 106.64L254.976 106.643C257.435 106.643 259.298 106 260.965 104.402L261.122 104.249L261.535 103.826H261.65V118.426L261.179 118.652C258.647 119.858 257.089 120.403 252.775 120.403C240.588 120.403 233.897 113.789 233.636 101.437L233.631 101.061V100.685L233.629 81.8934H228.066V68.6575H234.048V57.4265H249.003ZM357.358 67.6122C373.219 67.6122 384.461 78.537 384.461 94.0062C384.461 109.41 373.182 120.403 357.358 120.403C341.446 120.403 330.149 109.426 330.149 94.0062C330.149 78.5215 341.41 67.6122 357.358 67.6122ZM396.991 103.608C401.643 103.608 405.413 107.369 405.413 112.004C405.413 116.642 401.641 120.403 396.991 120.403C392.339 120.403 388.569 116.642 388.569 112.004C388.569 107.367 392.342 103.608 396.991 103.608ZM296.56 81.372C289.634 81.372 284.93 86.4817 284.93 94.0062C284.93 101.533 289.634 106.643 296.56 106.643C303.575 106.643 308.294 101.549 308.294 94.0062C308.294 86.4661 303.575 81.372 296.56 81.372ZM196.288 81.372C189.341 81.372 184.557 86.5076 184.557 94.0062C184.557 101.507 189.341 106.643 196.291 106.643C203.149 106.643 207.921 101.492 207.921 94.0062C207.921 86.5232 203.146 81.372 196.288 81.372ZM357.358 81.372C350.412 81.372 345.624 86.5076 345.624 94.0062C345.624 101.507 350.412 106.643 357.358 106.643C364.217 106.643 368.988 101.492 368.988 94.0062C368.988 86.5232 364.217 81.372 357.358 81.372Z" fill="#0042E4"/>
</svg>
